X: 35478
T: Roy's Wife
R: strathspey
M: 4/4
K: Gmajor
dc|:BzBA BABg|BzBG ABcA|BzBd gaba|(3gfe dB ABcA:|
|:degb agbz|degb ageg|degb agba|(3gfe dB ABcA:|

